vueDemo/src/icons/svg/opinion.svg

<?xml version="1.0" standalone="no"?><!DOCTYPE svg PUBLIC "-//W3C//DTD SVG 1.1//EN" "http://www.w3.org/Graphics/SVG/1.1/DTD/svg11.dtd"><svg class="icon" width="120px" height="120.00px" viewBox="0 0 1024 1024" version="1.1" xmlns="http://www.w3.org/2000/svg"><path d="M329.95328 255.67232 698.1632 255.67232c14.62272 0 26.43968-11.83744 26.43968-26.4192 0-14.58176-11.81696-26.4192-26.43968-26.4192L329.95328 202.83392c-14.60224 0-26.4192 11.83744-26.4192 26.4192C303.53408 243.83488 315.35104 255.67232 329.95328 255.67232L329.95328 255.67232zM329.95328 402.51392l262.43072 0c14.60224 0 26.35776-11.83744 26.35776-26.4192s-11.75552-26.39872-26.35776-26.39872L329.95328 349.696c-14.60224 0-26.4192 11.81696-26.4192 26.39872S315.35104 402.51392 329.95328 402.51392L329.95328 402.51392zM930.01728 319.5904l-66.21184-38.48192L863.80544 82.18624c0-14.76608-11.96032-26.74688-26.70592-26.74688L191.05792 55.43936c-14.7456 0-26.7264 11.96032-26.7264 26.74688l0 198.94272-66.23232 38.48192-52.79744 26.46016 0 30.53568 0 2.78528 0 570.30656 0 0c0 3.62496 0.73728 7.08608 2.08896 10.21952 0.1024 0.26624 0.26624 0.47104 0.38912 0.75776 0.7168 1.51552 1.57696 3.01056 2.60096 4.42368 4.62848 6.41024 11.96032 10.56768 20.3776 10.87488 0.32768 0 0.63488 0.1024 0.96256 0.1024L956.416 976.0768c14.60224 0 26.39872-11.83744 26.39872-26.37824L982.81472 380.19072l0-2.78528 0-28.8768L930.01728 319.5904 930.01728 319.5904zM863.80544 342.2208l62.27968 36.18816-62.27968 36.16768L863.80544 342.2208 863.80544 342.2208zM234.27072 108.2368l559.57504 0c13.12768 0 17.18272 4.01408 17.18272 17.1008l0 319.91808-296.96 172.52352-296.93952-172.52352L217.12896 125.35808C217.14944 112.25088 221.184 108.2368 234.27072 108.2368L234.27072 108.2368zM164.33152 414.55616l-62.27968-36.16768 62.27968-36.18816L164.33152 414.55616 164.33152 414.55616zM930.01728 923.21792 98.11968 923.21792 98.11968 437.20704l402.65728 233.8816c0.36864 0.3072 0.8192 0.4096 1.2288 0.59392 0.59392 0.32768 1.16736 0.53248 1.76128 0.79872 0.98304 0.43008 1.96608 0.79872 2.9696 1.1264 0.65536 0.16384 1.29024 0.26624 1.96608 0.43008 0.96256 0.2048 1.92512 0.36864 2.92864 0.45056 0.8192 0.04096 1.6384 0.04096 2.4576 0.04096s1.6384 0 2.4576-0.04096c0.98304-0.1024 1.9456-0.26624 2.92864-0.45056 0.65536-0.18432 1.31072-0.28672 1.96608-0.43008 1.00352-0.32768 1.98656-0.69632 2.99008-1.1264 0.59392-0.26624 1.16736-0.47104 1.76128-0.79872 0.4096-0.2048 0.83968-0.3072 1.2288-0.59392l402.6368-233.8816L930.05824 923.21792 930.01728 923.21792zM930.01728 923.21792" /></svg>

<svg class="icon" width="120" height="120" viewBox="0 0 1024 1024" xmlns="http://www.w3.org/2000/svg"><path d="M329.953 255.672h368.21c14.623 0 26.44-11.837 26.44-26.419s-11.817-26.42-26.44-26.42h-368.21c-14.602 0-26.419 11.838-26.419 26.42 0 14.582 11.817 26.42 26.42 26.42zm0 146.842h262.431c14.602 0 26.358-11.838 26.358-26.42s-11.756-26.398-26.358-26.398h-262.43c-14.603 0-26.42 11.817-26.42 26.399s11.817 26.419 26.42 26.419zm600.064-82.924l-66.212-38.482V82.186c0-14.766-11.96-26.747-26.705-26.747H191.058c-14.746 0-26.726 11.96-26.726 26.747V281.13l-66.233 38.482-52.797 26.46v603.628c0 3.625.737 7.086 2.089 10.22.102.265.266.47.389.757a27.772 27.772 0 0 0 2.6 4.424c4.63 6.41 11.961 10.567 20.378 10.874.328 0 .635.103.963.103h884.695c14.602 0 26.399-11.838 26.399-26.378v-601.17l-52.798-28.939zm-66.212 22.63l62.28 36.189-62.28 36.168V342.22zM234.271 108.238h559.575c13.127 0 17.182 4.014 17.182 17.1v319.919l-296.96 172.523L217.13 445.256V125.358c.02-13.107 4.055-17.121 17.142-17.121zm-69.94 306.32l-62.28-36.169 62.28-36.188v72.356zm765.686 508.66H98.12v-486.01l402.657 233.882c.369.307.82.41 1.229.594.594.327 1.167.532 1.761.798.983.43 1.966.799 2.97 1.127.655.164 1.29.266 1.966.43.962.205 1.925.368 2.928.45.82.041 1.639.041 2.458.041s1.638 0 2.458-.04a36.16 36.16 0 0 0 2.928-.451c.656-.185 1.31-.287 1.966-.43a35.529 35.529 0 0 0 2.99-1.127c.594-.266 1.168-.47 1.762-.798.41-.205.84-.308 1.228-.594l402.637-233.882v486.01h-.04zm0 0"/></svg>
